!!!ONB: MCCC : IRS0102_05 : Extracted Monophonic Melody
!!!COM: Schumann, Robert
!!!OPR: 8 Novelletten
!!!OMV: 5
!!!SCT: Op.21
!!!ODT: 1838///
**kern
*staff1
*clefG2
*k[b-e-]
*B-:
*M3/4
16A
16A
8B-
8A-
=2
8A
8aa
8dd
8ee
8a
16b
16cc#
=3
4dd
4f#
8ff#
8ee
=4
16dd
16ee
16dd
16cc#
16b
16dd-
16b
16a
8a-
8ee
=5
8a
16A
16A
8B-
8A-
8A
8aa
=6
8dd
8ee
8a
16b
16cc#
8dd
8a-
=7
8a
8g
8f#
8f
8e
8a
=8
4a
4b
8bb
8aa
=9
16gg
16aa
16gg
16ff#
16ee
16ff#
16ee
16dd
8cc
8aa
=10
8dd
16d
16d
8e-
8d-
8d
8ddd
=11
8gg
8aa
8dd
16ee
16ff#
8gg
8dd-
=12
8dd
8cc
8b
8a
8g
8a-
=13
8a
8b
8dd-
8A
8A
8A
=14
16B-
16e-
16g
16b-
8ee-
8dd
40cc#
40dd
40cc#
40dd
40dd-
16cc
16dd-
=15
4dd
4r
4r
=16
4r
4r
40ee-
40ee
40dd#
40ee
40ee-
16dd
16ee-
=17
4ee
4r
4r
=18
8bb
16bb-
16aa-
8ff#
16aa-
16ff#
8dd-
16ee-
16dd-
=19
16a
16b-
16dd
16ff
8bb-
8aa
40gg#
40aa
40gg#
40aa
40aa-
16gg
16aa-
=20
8aa
16gg#
16ff#
8ee
16ff#
16ee
8b
16dd-
16b
=21
8cc#
8dd
8ee
16A
16A
8B-
8A-
=22
8A
8aa
8dd
8ee
8a
16b
16cc#
=23
4dd
4f#
8ff#
8ee
=24
16dd
16ee
16dd
16cc#
16b
16dd-
16b
16a
8a-
8ee
=25
8a
16A
16A
8B-
8A-
8A
8aa
=26
8dd
8ee
8a
16b
16cc#
8dd
8a-
=27
8a
8g
8f#
8f
8e
8a
=28
4a
4b
8bb
8aa
=29
16gg
16aa
16gg
16ff#
16ee
16ff#
16ee
16dd
8cc
8aa
=30
8dd
16d
16d
8e-
8d-
8d
8ddd
=31
8gg
8aa
8dd
16ee
16ff#
8gg
8dd-
=32
8dd
8cc
8b
8a
8g
8a-
=33
8a
8b
4cc#
4dd
=34
8d
8e
8f
8c
8c
8d
=35
8e-
8B-
8B-
8c
8d
8B-
=36
8d
8e-
8f
8c
8c
8d
=37
8e-
8B-
8B-
8c
8d-
8B-
=38
8d
8e-
8f
8c
8c
8d
=39
8e-
8B-
8B-
8c
4d
=40
8c
8d
8e
8f
8g
8f
=41
8e
8f
8g
8a
8f
8e-
=42
8d
8e
8f
8c
8c
8d
=43
8e-
8B-
8B-
8c
8d
8B-
=44
8d
8e-
8f
8c
8c
8d
=45
8e-
8B-
8B-
8c
8d-
8B-
=46
8d
8e-
8f
8c
8c
8d
=47
8e-
8B-
8B-
8c
4d
=48
8c
8d
8e
8f
8g
8f
=49
8e
8f
8g
8a
8f
8c
=50
8f
8g
8a
8f
8f
8g
=51
8a
8f
8g
8a
8b-
8a
=52
8g
8a
8b-
8g
8g
8a
=53
8b-
8g
8a
8b-
8cc
8b-
=54
8a
8b-
8cc
8g
8g
8a
=55
8b-
8f
8f
8g
4a
=56
8a
8b-
8cc
8g
8g
8a
=57
8b-
8f
8f
8g
4a
=58
4a
8a
8g
8f
8e-
=59
4f
8f
8e-
8d
8c
=60
16d
16d
8d
8f
8f
8f[
8f]
=61
16d
16f
8f
16f
16f
8f
8f[
8f]
=62
8d
8e-
8f
8c
8c
8d
=63
8e-
8B-
8B-
8c
8d-
8A-
=64
8d-
8e-
8f
8c
8c
8d
=65
8e-
8B-
8B-
8c
8d-
8B-
=66
8d
8e-
8f
8c
8c
8d
=67
8e-
8f
8g
8f
8e-
8d
=68
8c
8d
8e-
8f
8g
8a
=69
8b-
8cc
8dd
8ff
4ff
=70
8f
8g
8a
8f
8f
8g
=71
8a
8f
8g
8a
8b-
8a
=72
8g
8a
8b-
8g
8g
8a
=73
8b-
8g
8a
8b-
8cc
8b-
=74
8a
8b-
8cc
8g
8g
8a
=75
8b-
8f
8f
8g
4a
=76
8a
8b-
8cc
8g
8g
8a
=77
8b-
8f
8f
8g
4a
=78
4a
8a
8g
8f
8e-
=79
4f
8f
8e-
8d
8c
=80
16d
16d
8d
8f
8f
8f[
8f]
=81
16d
16f
8f
16f
16f
8f
8f[
8f]
=82
8d
8e-
8f
8c
8c
8d
=83
8e-
8B-
8B-
8c
8d-
8A-
=84
8d-
8e-
8f
8c
8c
8d
=85
8e-
8B-
8B-
8c
8d-
8B-
=86
8d
8e-
8f
8c
8c
8d
=87
8e-
8f
8g
8f
8e-
8d
=88
8c
8d
8e-
8f
8g
8a
=89
8b-
8cc
8dd
16d
16d
8e-
8d-
=90
8d
8ddd
8gg
8aa
8dd
16ee
16ff#
=91
8gg
8ee-
8dd
16B-
16B-
8c
8A
=92
8B-
8bb-
8ee-
8ff
8b-
16cc
16dd
=93
8ee-
8cc
8b
16G
16G
8A-
8F#
=94
2G
4r
=95
8r
8cc
8f
8g
32c
32d
32c
32d
32c
32d
32d
32e
=96
2f
8b
16cc
16dd
=97
8ee-
8dd
8dd-
16A
16A
8B-
8A-
=98
2A
4r
=99
8r
8dd
8g
8a
32d
32e
32d
32e
32d
32e
32e
32f#
=100
2g
8dd-
16dd
16ee
=101
8ff
8ee
8ee-
16B
16B
8d-
8B-
=102
8B
8gg
8ff#
16B
16B
8d-
8B-
=103
4B
8aa-
16B-
16B-
8c
8A
=104
8B-
8gg
8ff
16A
16A
8B-
8A-
=105
8A
8aa
8dd
8ee
8a
16b
16cc#
=106
4dd
4f#
8ff#
8ee
=107
16dd
16ee
16dd
16cc#
16b
16dd-
16b
16a
8a-
8ee
=108
8a
16A
16A
8B-
8A-
8A
8aa
=109
8dd
8ee
8a
16b
16cc#
8dd
8a-
=110
8a
8g
8f#
8f
8e
8a
=111
4a
4b
8bb
8aa
=112
16gg
16aa
16gg
16ff#
16ee
16ff#
16ee
16dd
8cc
8aa
=113
8dd
16d
16d
8e-
8d-
8d
8ddd
=114
8gg
8aa
8dd
16ee
16ff#
8gg
8dd-
=115
8dd
8cc
8b
8a
8g
8a-
=116
8a
8b
4cc#
4dd
=117
8a
4a
4a[
8a]
=118
8a
8a
8a[
8a]
8b[
8b]
=119
4a
4a
8a[
8a]
=120
8a
8a
8a[
8a]
8dd[
8dd]
=121
8a
8a
8a
8a
8a[
8a]
=122
8a
8a
4a
8b[
8b]
=123
8a
8a
8a
8a
8a[
8a]
=124
4a
4a
8a[
8a]
=125
8d
4dd
4dd
8dd
=126
8d
8dd
8dd
8dd
8e
8dd-
=127
4d
4dd
8dd
8dd
=128
8d
8dd
8dd
8dd
8g
8dd-
=129
8d
8dd
8dd
8dd
8d
8dd
=130
8d
8dd
4dd
8dd
8dd-
=131
4ee
8ee
8dd
8dd-
8dd
=132
8dd
8dd
4dd
8cc
8b-
=133
4a
4a
8a[
8a]
=134
8a
8a
4a
8b[
8b]
=135
4a
4a
8a[
8a]
=136
8a
8a
8a[
8a]
8dd[
8dd]
=137
4a
4a
8a[
8a]
=138
8a
8a
8a[
8a]
8b[
8b]
=139
8a
8a
4a
4a
=140
8a
8a[
4a]
4r
=141
8r
8f
8B-
8c
8F
16G
16A
=142
8B-
8b-
8e-
8f
8B-
16c
16d
=143
8e-
8ee-
8a-
8b-
8e-
16f
16g
=144
8a-
8a-
4g
4r
=145
8r
8c
8F
8G
8C
16D
16E
=146
8F
8f
8B-
8c
8F
16G
16A
=147
8B-
8b-
8e-
8f
8B-
16c
16d
=148
8e-
8e-
4d-
4r
=149
8r
8F#
8BB
8D-
8FF#
16AA-
16BB-
=150
8BB
8C
2D[
=151
8D]
8G
8C
8D
8GG
16AA
16BB
=152
8C
8D
2E
=153
8r
8A
8A[
8A]
4G
=154
8F#
8d
8d[
8d]
4c#
=155
8B
8G
8G[
8G]
4F#
=156
8E
8d-
8d-[
8d-]
4B
=157
8A
8f#
8f#[
8f#]
4e
=158
8d
8b
8b[
8b]
4a
=159
4g
4a-
4a
=160
4b
8dd-
16A
16A
8B-
8A-
=161
8A
8aa
8dd
8ee
8a
16b
16cc#
=162
4dd
4f#
8ff#
8ee
=163
16dd
16ee
16dd
16cc#
16b
16dd-
16b
16a
8a-
8ee
=164
8a
16A
16A
8B-
8A-
8A
8aa
=165
8dd
8ee
8a
16b
16cc#
8dd
8a-
=166
8a
8g
8f#
8f
8e
8a
=167
4a
4b
8bb
8aa
=168
16gg
16aa
16gg
16ff#
16ee
16ff#
16ee
16dd
8cc
8aa
=169
8dd
16d
16d
8e-
8d-
8d
8ddd
=170
8gg
8aa
8dd
16ee
16ff#
8gg
8dd-
=171
8dd
8cc
8b
8a
8g
8a-
=172
8a
8b
4cc#
4dd
=173
8d
16d
16d
8g
16g
16g
8f#
16f#
16f#
=174
8g
16g
16g
8a
16a
16a
8b-
16b-
16b-
=175
8d
16d
16d
8g
16g
16g
8c
16c
16c
=176
8f
16f
16f
8f
16f
16f
8f
8f#
=177
8d
16d
16d
8g
16g
16g
8f#
16f#
16f#
=178
8g
16g
16g
8a
16a
16a
8b-
16b-
16b-
=179
8e-
16e-
16e-
8a-
16a-
16a-
8d
16d
16d
=180
8e-
16e-
16e-
8e-
16e-
16e-
8e-
8d
=181
8d
16d
16d
8g
16g
16g
8f#
16f#
16f#
=182
8g
16g
16g
8a
16a
16a
8b-
16b-
16b-
=183
8d
16d
16d
8g
16g
16g
8c
16c
16c
=184
8f
16f
16f
8f
16f
16f
8f
8f#
=185
8d
16d
16d
8g
16g
16g
8f#
16f#
16f#
=186
8g
16g
16g
8a
16a
16a
8b-
16b-
16b-
=187
8e-
16e-
16e-
8a-
16a-
16a-
8d
16d
16d
=188
8e-
16e-
16e-
8e-
16e-
16e-
4e-
=189
4e
4f
4g
=190
4f
4e-
4d-
=191
4d-[
4d-]
4d-
=192
4d-
4d-[
4d-]
=193
4e
4f
4g
=194
4f
4e-
4d-
=195
4d-[
4d-]
4d
=196
4d[
4d]
4e
=197
4c
4f
4e
=198
4.f
8g
8a
8a
=199
8d
16d
16d
8g
16g
16g
8f#
16f#
16f#
=200
8g
16g
16g
8a
16a
16a
8b-
16b-
16b-
=201
8d
16d
16d
8g
16g
16g
8c
16c
16c
=202
8f
16f
16f
8f
16f
16f
8f
8f#
=203
8d
16d
16d
8g
16g
16g
8f#
16f#
16f#
=204
8g
16g
16g
8a
16a
16a
8b-
16b-
16b-
=205
8e-
16e-
16e-
8a-
16a-
16a-
8d
16d
16d
=206
8e-
8e-
8e-
16d
16d
8e-
8d-
=207
8d
8ddd
8gg
8aa
8dd
16ee
16ff#
=208
8gg
8ee-
8dd
16B-
16B-
8c
8A
=209
8B-
8bb-
8ee-
8ff
8b-
16cc
16dd
=210
8ee-
8cc
8b
16G
16G
8A-
8F#
=211
2G
4r
=212
8r
8cc
8f
8g
32c
32d
32c
32d
32c
32d
32d
32e
=213
2f
8b
16cc
16dd
=214
8ee-
8dd
8dd-
16A
16A
8B-
8A-
=215
2A
4r
=216
8r
8dd
8g
8a
32d
32e
32d
32e
32d
32e
32e
32f#
=217
2g
8dd-
16dd
16ee
=218
8ff
8ee
8ee-
16B
16B
8d-
8B-
=219
8B
8gg
8ff#
16B
16B
8d-
8B-
=220
4B
8aa-
16B-
16B-
8c
8A
=221
8B-
8gg
8ff
16A
16A
8B-
8A-
=222
8A
8aa
8dd
8ee
8a
16b
16cc#
=223
4dd
4f#
8ff#
8ee
=224
16dd
16ee
16dd
16cc#
16b
16dd-
16b
16a
8a-
8ee
=225
8a
16A
16A
8B-
8A-
8A
8aa
=226
8dd
8ee
8a
16b
16cc#
8dd
8a-
=227
8a
8g
8f#
8f
8e
8a
=228
4a
4b
8bb
8aa
=229
16gg
16aa
16gg
16ff#
16ee
16ff#
16ee
16dd
8cc
8aa
=230
8dd
16d
16d
8e-
8d-
8d
8ddd
=231
8gg
8aa
8dd
16ee
16ff#
8gg
8dd-
=232
8dd
8cc
8b
8a
8g
8a-
=233
8a
8b
4cc#
4dd
=234
8f#[
8f#]
8g[
8g]
8e[
8e]
=235
8f#[
8f#]
8d[
8d]
8e[
8e]
=236
8d-
8e-
8d-
8f#
8f#
8e#
=237
4f#
4f
4f#
=238
8f#
8g
8g
8e
8e
8f#
=239
8f#
8d
8d
8e
4e
=240
8d
8e
8d
8g
8g
8f#
=241
8g
8d
8g
8e
8g
8d
=242
8f#[
8f#]
8g[
8g]
8e[
8e]
=243
8f#[
8f#]
8d[
8d]
8e[
8e]
=244
8d-
8e-
8d-
8f#
8f#
8e#
=245
4f#
4f
4f#
=246
8f#
8g
8g
8e
8e
8f#
=247
8f#
8d
8d
8e
4e
=248
8d
8e
8d
8g
8g
8f#
=249
8g
8d
8g
8e
8g
8d
=250
8g
8a
8g
8b
8b
8a
=251
8a
8b
8b
8a
8a
8b
=252
8a
8b
8a
8cc
8cc
8a
=253
8a
8cc
8cc
8a
8a
8cc
=254
8b
8cc
8cc
8b
8b
8cc
=255
8cc
8b
8b
8a
8a
8g
=256
8g
8a
8a
8g
8g
8f#
=257
8f#
8g
8g
8f#
8f#
8g
=258
4f#
8g[
8g]
8e[
8e]
=259
8f#[
8f#]
8d[
8d]
8e[
8e]
=260
8d-
8e-
8d-
8f#
8f#
8e#
=261
4f#
4f
4f#
=262
8f#
8g
8g
8e
8e
8f#
=263
8f#
8d
8d
8e
4e[
=264
2e]
4r
=265
8AA
8BB
8AA
8D
8D
8D-
=266
8B-
8B
8B-
8d
8d
8d-
=267
8b-
8b
8b-
8dd
8dd
8dd-
=268
8dd-
8dd
8dd-
8aa-
8aa-
8dd-
=269
8dd-
8dd
8dd-
8aa-
8aa-
8dd-
=270
8dd-
8dd
8dd-
8gg
8gg
8dd-
=271
8dd-
8dd
8dd-
8gg
8gg
8dd-
=272
8dd-
8dd
8cc#
8dd
8cc#
8dd
=273
8dd-
8e
8dd-
8e
8dd-
8e
=274
8dd-
8dd
8cc#
8dd
8cc#
8dd
=275
8dd-
8e
8dd-
8e
8dd-
8e
=276
4a
4a
8a[
8a]
=277
8a
8a
8a[
8a]
8b[
8b]
=278
4a
4a
8a[
8a]
=279
8a
8a
8a[
8a]
8dd[
8dd]
=280
4a
4a
8a[
8a]
=281
8a
8a
8a[
8a]
8b[
8b]
=282
4a
4a
8a[
8a]
=283
8a
8a[
2a]
=284
8dd
8dd[
2dd]
=285
8dd
8dd
4dd
4gg
=286
8dd
8dd[
2dd]
=287
8dd
8dd
4dd
4bb
=288
4a
4a
8a[
8a]
=289
8a
8a
8a[
8a]
8b[
8b]
=290
4a
4a
8a[
8a]
=291
8a
8a
8a[
8a]
8dd[
8dd]
=292
4a
4a
8a[
8a]
=293
8a
8a
4a
8b[
8b]
=294
4a
4a
8a[
8a]
=295
4a[
2a]
=296
4d[
2d]
=297
4g
2g
=298
4g
4f#
4e
=299
2f#
4r
=300
2.r
==
*-
